resources/icons/color/dashboard.svg

<svg width="64" height="64" fill="none" xmlns="http://www.w3.org/2000/svg"><path d="M6 13C6 9.13401 9.13401 6 13 6H51C54.866 6 58 9.13401 58 13V51C58 54.866 54.866 58 51 58H13C9.13401 58 6 54.866 6 51V13Z" fill="url(#icon-fae972a3e026ef37__icon-a3225af9149febca__a)"/><path d="M6 13C6 9.13401 9.13401 6 13 6H51C54.866 6 58 9.13401 58 13V51C58 54.866 54.866 58 51 58H13C9.13401 58 6 54.866 6 51V13Z" fill="url(#icon-48cf4b6aa405edcc__icon-90d168406cbfb377__b)" fill-opacity="0.2"/><path fill-rule="evenodd" clip-rule="evenodd" d="M51 7H13C9.68629 7 7 9.68629 7 13V51C7 54.3137 9.68629 57 13 57H51C54.3137 57 57 54.3137 57 51V13C57 9.68629 54.3137 7 51 7ZM13 6C9.13401 6 6 9.13401 6 13V51C6 54.866 9.13401 58 13 58H51C54.866 58 58 54.866 58 51V13C58 9.13401 54.866 6 51 6H13Z" fill="url(#icon-bfe9006481c8aaeb__icon-8303f828e31883ce__c)"/><circle cx="32" cy="32" r="13.5" fill="url(#icon-c61e62b4efc2d44d__icon-4d235669ae250d96__d)" stroke="url(#icon-abcafd2fce145764__icon-162d09d8922bc384__e)"/><path fill-rule="evenodd" clip-rule="evenodd" d="M31.646 22.9375C26.8661 22.9375 22.9912 26.8124 22.9912 31.5923C22.9912 33.0008 23.3273 34.3294 23.9232 35.5035C24.0565 35.7662 24.2028 36.0211 24.3613 36.2676C24.5107 36.4998 24.4435 36.8092 24.2113 36.9586C23.979 37.108 23.6697 37.0408 23.5203 36.8086C23.3435 36.5337 23.1802 36.2492 23.0315 35.9561C22.366 34.6449 21.9912 33.1616 21.9912 31.5923C21.9912 26.2601 26.3138 21.9375 31.646 21.9375C32.8339 21.9375 33.9728 22.1523 35.0253 22.5455C35.2839 22.6422 35.4153 22.9303 35.3186 23.1889C35.2219 23.4476 34.9339 23.5789 34.6752 23.4823C33.7331 23.1302 32.7126 22.9375 31.646 22.9375Z" fill="#F4D58A"/><path d="M33.5797 33.8802C35.1297 31.4202 36.6997 28.9402 38.2197 26.4902C38.4297 26.1602 38.6397 25.8302 38.8497 25.5002C39.4997 24.5202 38.0197 23.4402 37.2597 24.3202C37.1897 24.3802 37.1197 24.4402 37.0497 24.5002C36.8897 24.6402 36.7297 24.7702 36.5697 24.9102C36.2297 25.2002 35.8897 25.4902 35.5397 25.7902C34.8297 26.3902 34.1197 27.0002 33.4097 27.6002C32.4997 28.3702 31.5897 29.1502 30.6797 29.9202C30.4797 30.0902 30.2897 30.2502 30.0897 30.4202C26.9397 32.8402 31.1897 37.0602 33.5697 33.8902L33.5797 33.8802Z" fill="#F4D58A"/><defs><linearGradient id="icon-fae972a3e026ef37__icon-a3225af9149febca__a" x1="20.4444" y1="6" x2="27.0222" y2="58.6222" gradientUnits="userSpaceOnUse"><stop stop-color="white"/><stop offset="1" stop-color="#EBEBEB"/></linearGradient><radialGradient id="icon-48cf4b6aa405edcc__icon-90d168406cbfb377__b" cx="0" cy="0" r="1" gradientUnits="userSpaceOnUse" gradientTransform="translate(22.6111 19.5417) rotate(56.3099) scale(49.4762 42.8159)"><stop offset="0.177083" stop-color="white"/><stop offset="1" stop-color="#B8B8B8"/></radialGradient><linearGradient id="icon-bfe9006481c8aaeb__icon-8303f828e31883ce__c" x1="22.7917" y1="6" x2="29.7931" y2="58.5109" gradientUnits="userSpaceOnUse"><stop stop-color="#BBBBBB"/><stop offset="1" stop-color="#888888"/></linearGradient><linearGradient id="icon-c61e62b4efc2d44d__icon-4d235669ae250d96__d" x1="18" y1="18" x2="46" y2="46" gradientUnits="userSpaceOnUse"><stop stop-color="#C28400"/><stop offset="1" stop-color="#A86500"/></linearGradient><linearGradient id="icon-abcafd2fce145764__icon-162d09d8922bc384__e" x1="18" y1="18" x2="46" y2="46" gradientUnits="userSpaceOnUse"><stop stop-color="#C28400"/><stop offset="1" stop-color="#A86500"/></linearGradient></defs></svg>

<svg xmlns="http://www.w3.org/2000/svg" width="64" height="64" fill="none"><path fill="url(#i75e08b-paint0_linear_41449_45688)" d="M6 13a7 7 0 0 1 7-7h38a7 7 0 0 1 7 7v38a7 7 0 0 1-7 7H13a7 7 0 0 1-7-7z"/><path fill="url(#i75e08b-paint1_radial_41449_45688)" fill-opacity=".2" d="M6 13a7 7 0 0 1 7-7h38a7 7 0 0 1 7 7v38a7 7 0 0 1-7 7H13a7 7 0 0 1-7-7z"/><path fill="url(#i75e08b-paint2_linear_41449_45688)" fill-rule="evenodd" d="M51 7H13a6 6 0 0 0-6 6v38a6 6 0 0 0 6 6h38a6 6 0 0 0 6-6V13a6 6 0 0 0-6-6M13 6a7 7 0 0 0-7 7v38a7 7 0 0 0 7 7h38a7 7 0 0 0 7-7V13a7 7 0 0 0-7-7z" clip-rule="evenodd"/><circle cx="32" cy="32" r="13.5" fill="url(#i75e08b-paint3_linear_41449_45688)" stroke="url(#i75e08b-paint4_linear_41449_45688)"/><path fill="#F4D58A" fill-rule="evenodd" d="M31.646 22.938a8.655 8.655 0 0 0-7.285 13.33.5.5 0 0 1-.84.54 9.616 9.616 0 0 1-1.53-5.216 9.655 9.655 0 0 1 9.655-9.655c1.188 0 2.327.215 3.38.608a.5.5 0 0 1-.35.937 8.6 8.6 0 0 0-3.03-.544" clip-rule="evenodd"/><path fill="#F4D58A" d="M33.58 33.88c1.55-2.46 3.12-4.94 4.64-7.39l.63-.99c.65-.98-.83-2.06-1.59-1.18l-.21.18c-.16.14-.32.27-.48.41l-1.03.88c-.71.6-1.42 1.21-2.13 1.81-.91.77-1.82 1.55-2.73 2.32l-.59.5c-3.15 2.42 1.1 6.64 3.48 3.47z"/><defs><linearGradient id="i75e08b-paint0_linear_41449_45688" x1="20.444" x2="27.022" y1="6" y2="58.622" gradientUnits="userSpaceOnUse"><stop stop-color="#fff"/><stop offset="1" stop-color="#EBEBEB"/></linearGradient><radialGradient id="i75e08b-paint1_radial_41449_45688" cx="0" cy="0" r="1" gradientTransform="matrix(27.44448 41.16667 -35.62497 23.75 22.611 19.542)" gradientUnits="userSpaceOnUse"><stop offset=".177" stop-color="#fff"/><stop offset="1" stop-color="#B8B8B8"/></radialGradient><linearGradient id="i75e08b-paint2_linear_41449_45688" x1="22.792" x2="29.793" y1="6" y2="58.511" gradientUnits="userSpaceOnUse"><stop stop-color="#BBB"/><stop offset="1" stop-color="#888"/></linearGradient><linearGradient id="i75e08b-paint3_linear_41449_45688" x1="18" x2="46" y1="18" y2="46" gradientUnits="userSpaceOnUse"><stop stop-color="#C28400"/><stop offset="1" stop-color="#A86500"/></linearGradient><linearGradient id="i75e08b-paint4_linear_41449_45688" x1="18" x2="46" y1="18" y2="46" gradientUnits="userSpaceOnUse"><stop stop-color="#C28400"/><stop offset="1" stop-color="#A86500"/></linearGradient></defs></svg>
